!!!!SEGMENT: pl-sa--481-a-viii-121--009_hoffmeister-franz-anton--telemak.krn
!!!cenid: 18xx:380
!!!COM: Hoffmeister, Franz Anton
!!!COM-rismID: pe94981
!!!CDT: 1754/05/12-1812/02/09
!!!CNT: German
!!!OTL: Telemak
!!!PDT:
!!!AGN: Secular
!!!SMS-siglum: PL-SA
!!!SMS-shelfmark: 481/A VIII 121
!!!SMS-shelfwork: 009 W
!!!SMS-variant:
!!!SMS-altvar:
!!!NIFC-rismSourceID: 1001070467
!!!NIFC-islandoraID:
!!!URL-pdf-islandora:
!!!URL-scan: https://bc.bdsandomierz.pl/dlibra/publication/1212/edition/1171/content @EN{Scan in the Sandomierz Diocese Digital Library} @PL{Skany w portalu Cyfrowa Biblioteka Diecezjalna w Sandomierzu}
!!!ONB-nifc: Str. 7, s. 1-3
!!!AIN: 2 empty
!!!key:
**kern	**kern	**dynam
*part2	*part1	*part1
*staff2	*staff1	*
*Iempty	*Iempty	*
*I"	*I"	*
*clefG2	*clefG2	*
*k[]	*k[]	*
*C:	*C:	*
*M2/4	*M2/4	*
*>[A,A,B,B]	*>[A,A,B,B]	*
=1	=1	=1
*>A	*>A	*
!LO:TX:a:t=P:problem=błędnie zapisany klucz barytonowy	!LO:TX:a:i:t=Allegro	!
!	!LO:TX:a:i:t=Bello de l'Opera Telemak Composie par Mr Hoffmeister	!
8gL 8e 8c/	8cc\L	.
8g 8e 8c/	8cc\J	.
.	8qqdd/	.
8g 8e 8c/	8cc\L	.
8gJ 8e 8c/	16b\L	.
.	16cc\JJ	.
=2	=2	=2
8.g 8.e 8.c/	4ee\	.
16ryy	.	.
4ryy	8cc\L	.
.	8cc\J	.
=3	=3	=3
2g 2f 2A/	8dd\L	.
.	8dd\	.
.	8gg\	.
.	8gg\J	.
=4	=4	=4
*tremolo	*	*
8g 8e 8c/L	8.gg\L	.
8g 8e 8c/	.	.
.	32aa\LL	.
.	32gg\JJJ	.
8g 8e 8c/	8ee\L	.
8g 8e 8c/J	8cc\J	.
*Xtremolo	*	*
*clefF4	*	*
=5	=5	=5
8AL 8AA/	16cc\LL	.
.	16ccc\	.
8AJ 8AA/	16cc\	.
.	16ccc\JJ	.
8GL 8AA/	16b\LL	.
.	16bb\	.
8GJ 8AA/	16b\	.
.	16bb\JJ	.
=6	=6	=6
8FL 8FF/	16a\LL	.
.	16aa\	.
8FJ 8FF/	16a\	.
.	16aa\JJ	.
8EL 8EE/	16g\LL	.
.	16gg\	.
8EJ 8EE/	16g\	.
.	16gg\JJ	.
=7	=7	=7
8BBL 8BBB/	8ffL 8dd 8g\	.
8BBJ 8BBB/	8ffJ 8dd 8g\	.
8CL 8CC/	16ee\LL	.
.	16dd\	.
8CJ 8CC/	16ee\	.
.	16ff\JJ	.
=8	=8	=8
!LO:TX:a:t=P:problem=mixed beam	!	!
8GG/L	4ee 4cc 4g\	.
8G\	.	.
8GG/J	8dd 8b 8g\	.
8r	8r	.
=9:|!|:	=9:|!|:	=9:|!|:
*>B	*>B	*
*2\right	*	*
*tremolo	*	*
8B 8G\L	8r	.
!	!	!LO:DY:t=pia
8B 8G\	8dd\L	p
8B 8G\	8dd\	.
8B 8G\J	8dd#X\J	.
*Xtremolo	*	*
=10	=10	=10
8BL 8G\	8dd#X\L	.
8B 8G\	8ee\J	.
8e 8G\	4cc\	.
8eJ 8G\	.	.
=11	=11	=11
*tremolo	*	*
8c 8G\L	8r	.
8c 8G\	8ee\L	.
8c 8G\	8ee\	.
8c 8G\J	8ee\J	.
*Xtremolo	*	*
!LO:LB:g=original	!LO:LB:g=original	!
=12	=12	=12
8c#XL 8G\	8ee\L	.
8d 8G\	8ff\J	.
8B 8G\	4dd\	.
8BJ 8G\	.	.
=13	=13	=13
*tremolo	*	*
!	!	!LO:DY:t=for
8d 8G 8F\L	8r	f
8d 8G 8F\	16bb\LL	.
.	16aa\J	.
8d 8G 8F\	8gg\	.
8d 8G 8F\J	8ddd\J	.
*Xtremolo	*	*
=14	=14	=14
4c 4G 4E\	(8ccc\L	.
.	8gg\)	.
4r	8gg'\	.
.	8gg'\J	.
=15	=15	=15
4BB 4BBB/	(8ggL 8dd\	.
.	8ff\J)	.
4C 4CC/	(8ffL 8dd\	.
.	8eeJ 8cc\)	.
=16	=16	=16
!LO:TX:a:t=P:problem=mixed beam	!	!
8GG/L	(4ee 4cc 4g\	.
8G\	.	.
8GG/J	8dd 8b 8g\)	.
8r	8g/	.
*clefG2	*	*
=17	=17	=17
*tremolo	*	*
!	!	!LO:DY:t=pia
8g 8e 8c/L	8cc\L	p
8g 8e 8c/	8cc\J	.
.	8qqdd/	.
8g 8e 8c/	8cc\L	.
8g 8e 8c/J	16b\L	.
.	16cc\JJ	.
=18	=18	=18
8g 8d 8c/L	(4ee\	.
8g 8d 8c/	.	.
8g 8d 8c/	8cc\)	.
8g 8d 8c/J	8cc\	.
=19	=19	=19
8g 8f 8B/L	8dd\L	.
8g 8f 8B/	8dd\	.
8g 8f 8B/	8gg\	.
8g 8f 8B/J	8gg\J	.
=20	=20	=20
*tremolo	*	*
8g 8e 8c/L	8.gg\L	.
8g 8e 8c/	.	.
.	32aa\LL	.
.	32gg\JJJ	.
8g 8e 8c/	8ee\L	.
8g 8e 8c/J	8cc\J	.
!LO:CL:ed	!	!
*clefF4	*	*
=21	=21	=21
*	*2\right	*
*	*tremolo	*
!LO:TX:a:t=P:problem=brak zmiany klucza	!	!
16GLL 16E\	8ccc 8cc\L	f
16e\	.	.
16G 16E\	8ccc 8cc\	.
16e\	.	.
16G 16E\	8ccc 8cc\	.
16e\	.	.
16G 16E\	8ccc 8cc\J	.
16e\JJ	.	.
=22	=22	=22
4c 4G 4E\	16ccc\LL	.
.	16bb\	.
.	16aa\	.
.	16gg\JJ	.
4r	16ff\LL	.
.	16ee\	.
.	16dd\	.
.	16cc\JJ	.
=23	=23	=23
16BLL 16G\	8ccc 8cc\L	.
16c\	.	.
16B 16G\	8ccc 8cc\	.
16c\	.	.
16B 16G\	8ccc 8cc\	.
16c\	.	.
16B 16G\	8ccc 8cc\J	.
16c\JJ	.	.
*	*Xtremolo	*
=24	=24	=24
!	!LO:N:vis=8	!
4c 4A 4F\	16aa\LL	.
!	!LO:N:vis=8	!
.	16gg\	.
!	!LO:N:vis=8	!
.	16ff\	.
!	!LO:N:vis=8	!
.	16ee\JJ	.
4r	16dd\LL	.
.	16cc\	.
.	16b\	.
.	16a\JJ	.
!LO:LB:g=original	!LO:LB:g=original	!
=25	=25	=25
*clefF4	*	*
8e> 8c> 8G\L	8g/	.
8e 8c 8G\	4gg\	.
8e 8c 8G\	.	.
8e 8c 8G\J	8ee\	.
=26	=26	=26
8f> 8d> 8G\L	8gg\L	.
8f 8d 8G\	8ff\	.
8f 8d 8G\	8dd\	.
8f 8d 8G\J	8b\J	.
=27	=27	=27
8e 8c\L	8cc\L	.
.	8qdd/	.
8e 8c\	16cc\L	.
.	16b\JJ	.
8e 8c\	8cc\L	.
8e 8c\J	8ee\J	.
*Xtremolo	*	*
=28	=28	=28
4e 4c\	4cc\	.
4r	4r	.
==:|!	==:|!	==:|!
*-	*-	*-
!!!system-decoration: s1,s2
!!!RDF**kern: > = above
!!!ENC: Marta Lawrence
!!!END: 2020-11-20
!!!ENC: Berenika Jozajtis
!!!END: 2020-06-14
!!!YEC: Copyright 2022 Narodowy Instytut Fryderyka Chopina (https://polishscores.org)
!!!YEM: Licence CC BY 4.0 (https://creativecommons.org/licenses/by/4.0)
